X: 292
M: C|
L: 1/8
K: Am
V: 1
|: B |\
V: 2 clef=bass middle=d
z |\
a2a2 a2a2 | g2g2 g2g2 |\
a2a2 a2a2 | e2e2 A2A :|\
|: z |\
a2a2
a2a2 | g2g2 g2g2 |\
a2a2 a2a2 | e2e2 A2A :|



